lib/functional/health&wellness/first-aid.svg

<svg xmlns="http://www.w3.org/2000/svg" fill="none" stroke="currentColor" aria-hidden="true" viewBox="0 0 32 32"><g id="Icon-FirstAid"><g clip-path="url(#clip0_12_4341)"><g id="size=md (32px)"><g id="FirstAid"><path id="Vector" stroke-linecap="round" stroke-linejoin="round" stroke-width="2" d="M12 20H5C4.73478 20 4.48043 19.8946 4.29289 19.7071C4.10536 19.5196 4 19.2652 4 19V13C4 12.7348 4.10536 12.4804 4.29289 12.2929C4.48043 12.1054 4.73478 12 5 12H12V5C12 4.73478 12.1054 4.48043 12.2929 4.29289C12.4804 4.10536 12.7348 4 13 4H19C19.2652 4 19.5196 4.10536 19.7071 4.29289C19.8946 4.48043 20 4.73478 20 5V12H27C27.2652 12 27.5196 12.1054 27.7071 12.2929C27.8946 12.4804 28 12.7348 28 13V19C28 19.2652 27.8946 19.5196 27.7071 19.7071C27.5196 19.8946 27.2652 20 27 20H20V27C20 27.2652 19.8946 27.5196 19.7071 27.7071C19.5196 27.8946 19.2652 28 19 28H13C12.7348 28 12.4804 27.8946 12.2929 27.7071C12.1054 27.5196 12 27.2652 12 27V20Z"/></g></g></g></g><defs><clipPath id="clip0_12_4341"><rect width="32" height="32" fill="white" rx="5"/></clipPath></defs></svg>

<svg xmlns="http://www.w3.org/2000/svg" fill="none" stroke="currentColor" aria-hidden="true" viewBox="0 0 32 32"><g clip-path="url(#a)"><path stroke-linecap="round" stroke-linejoin="round" stroke-width="2" d="M12 20H5a1 1 0 0 1-1-1v-6a1 1 0 0 1 1-1h7V5a1 1 0 0 1 1-1h6a1 1 0 0 1 1 1v7h7a1 1 0 0 1 1 1v6a1 1 0 0 1-1 1h-7v7a1 1 0 0 1-1 1h-6a1 1 0 0 1-1-1v-7Z"/></g><defs><clipPath id="a"><rect width="32" height="32" fill="#fff" rx="5"/></clipPath></defs></svg>
